X:1
T:Title
%%score { ( 1 3 ) | 2 }
L:1/8
M:4/4
K:F
V:1 treble nm="Grand Piano"
V:3 treble 
V:2 bass 
V:1
 z4 z2[Q:1/4=100] C>F | A>A A>A A>G F>A | c>c c>d c2 A>G | F>F F>F F>A G>F | [EG]6 [Ec]>[EB] | %5
 A>A A>A B>B B>B | c>c c>c d2 [DF]>[DG] | [FA]3 [Fc] [FA]2 [EG]2 |[M:3/4] F6 |[M:1/4] c>c | %10
[M:4/4] c3 d c2 A2 | c6 z2 | F3 A G2 D2 | G6 z2 | A>A A>A B>B B>B | %15
[M:9/8] c>cc- c/c/ d2- d[DF]>[DG] |[M:4/4] [FA]3 [Fc] [FA]2 [EG]2 |[M:3/4] F6 |] %18
V:2
 z4 z2 [F,A,]>[F,A,C] | [F,CF]>[F,CF] [F,CF]>[F,CF] [F,CF]>[F,B,F] [F,A,]>[F,CF] | %2
 [F,A,F]>[F,A,F] [F,A,F]>[F,B,F] [F,A,F]2 [F,CF]>[F,B,C] | %3
 [F,A,C]>[F,A,C] [F,A,C]>[F,A,C] [G,=B,D]>[G,B,D] [G,B,D]>[G,B,D] | [C,C]6 [C,G,]>[C,C] | %5
 [F,CF]>[F,CF] [F,CF]>[F,CF] [G,CE]>[G,CE] [G,CE]>[G,CE] | %6
 [A,CF]>[A,CF] [A,CF]>[A,CF] [B,F]2[K:bass] [B,,B,]>[B,,B,] | [C,A,]3 [C,A,] [C,C]2 [C,B,]2 | %8
[M:3/4] [F,A,]6 |[M:1/4][K:treble] [F,A,F]>[F,A,F] |[M:4/4] [F,A,F]3 [F,B,F] [F,A,F]2 [F,CF]2 | %11
 [A,CF]2[K:bass] [G,B,]2 [F,A,]2 [F,CF]>[F,B,E] | [F,A,]3 [F,CF] [G,=B,D]2 [G,B,]2 | %13
 [C,C]2 [D,=B,]2 [E,C]2 [C,G,]>[C,C] | [F,CF]>[F,CF] [F,CF]>[F,CF] [G,CE]>[G,CE] [G,CE]>[G,CE] | %15
[M:9/8] [A,CF]>[A,CF][A,CF]- [A,CF]/[A,CF]/ [B,F]2- [B,F][K:bass][B,,B,]>[B,,B,] | %16
[M:4/4] [C,A,]3 [C,A,] [C,C]2 [C,B,]2 |[M:3/4] [F,A,]6 |] %18
V:3
 x8 | x8 | x8 | x8 | x8 | x8 | x8 | x8 |[M:3/4] x6 |[M:1/4] x2 |[M:4/4] x8 | z2 E2 F2 A>G | x8 | %13
 E2 F2 E2 [Ec]>[EB] | x8 |[M:9/8] x9 |[M:4/4] x8 |[M:3/4] x6 |] %18

